X: 1
T: Hughy Shorty's Reel
T: Hughie Shorty's Reel
C: Johnny Wilmot
M: C|
S: Roaring Jelly collection
S: printed copy in Concord Slow Scottish Session collection
Z: 2015 John Chambers <jc:trillian.mit.edu>
R: reel
K: G
|: "G"G2BG "D7"cAFA | "G"GABd g2fg | "C"ecAc "G"dBGB | "Am"cAAB "D7"AFD2 |
   "G"DGBG "D7"cAFA | "G"GABd g2fg | "C"ecAc "G"dBGB | "D7"cAFA "G"G4 :|
|: "G"g2dg bgag | "C"ec c/c/c efge | "G"dB B/B/B dBGB | "Am"cAAB "D7"AFD2 |
[1 "G"g2dg bgag | "C"ec c/c/c efge | "G"dB B/B/B dBGB | "D7"cAGF "G"G4 :|
[2 "C"G,CEC "G"B,D[dG]B | "D7"cdef "G"g2fg | "Am"ecAc "G"dBGB | "D7"cAFA "G"G4 |]
